X:61
T:Fiddlin' CD Breakdo
R:reel
C:Bruce Osborne - June 2002
Z:abc by bosborne@kos.net
M:2/4
L:1/8
K:Fmaj
A/B/|c/A/F/A/ C/F/A/c/|d/c/A/c/ FE/F/|G/F/G/A/ B/A/B/c/|e/d/c/B/ AA/B/|\
c/A/F/A/ C/F/A/c/|d/c/A/c/ FE/F/|G/F/G/A/ B/G/E/G/|F/E/F/G/ F:|
|:A,/B,/|C/B,/C/F/ A/c/f/g/|a/g/a/f/ ce/f/|g/e/c/e/ G/E/C/E/|F/E/F/G/ AA,/B,/|\
C/B,/C/F/ A/c/f/g/|a/g/a/f/ ce/f/|g/e/c/e/ G/E/C/E/|F/E/F/G/ F:|
